src/assets/images/icons/filter-expand-btn.svg

<svg width="22" height="12" viewBox="0 0 22 12" fill="none" xmlns="http://www.w3.org/2000/svg">
<path d="M10.9937 0C10.5715 0.00211334 10.1894 0.156131 9.87542 0.469501L0.418036 9.67139C0.146482 9.92919 0 10.2482 0 10.6217C0 11.3922 0.629702 12 1.43429 12C1.82752 12 2.19373 11.8502 2.47418 11.5871L11.6019 2.69641H10.3868L19.5235 11.5871C19.796 11.8459 20.16 12 20.5656 12C21.3725 12 22 11.3922 22 10.6217C22 10.2503 21.8512 9.9313 21.5841 9.66172L12.1224 0.469501C11.7879 0.151903 11.4241 0 10.9937 0Z" fill="black"/>
</svg>

<?xml version="1.0" encoding="UTF-8"?><svg id="Layer_1" xmlns="http://www.w3.org/2000/svg" viewBox="0 0 22 12"><defs><style>.cls-1{fill:#1d1d1f;}</style></defs><path class="cls-1" d="M10.99,0c-.42,0-.8,.16-1.12,.47L.42,9.67c-.27,.26-.42,.58-.42,.95,0,.77,.63,1.38,1.43,1.38,.39,0,.76-.15,1.04-.41L11.6,2.7h-1.22l9.14,8.89c.27,.26,.64,.41,1.04,.41,.81,0,1.43-.61,1.43-1.38,0-.37-.15-.69-.42-.96L12.12,.47c-.33-.32-.7-.47-1.13-.47Z"/></svg>
